workspaces/osm/styles/symbols/shop/car_parts.svg

<?xml version="1.0" encoding="UTF-8" standalone="no"?>
<!-- Created with Inkscape (http://www.inkscape.org/) -->

<svg
   xmlns:dc="http://purl.org/dc/elements/1.1/"
   xmlns:cc="http://creativecommons.org/ns#"
   xmlns:rdf="http://www.w3.org/1999/02/22-rdf-syntax-ns#"
   xmlns:svg="http://www.w3.org/2000/svg"
   xmlns="http://www.w3.org/2000/svg"
   version="1.1"
   width="14"
   height="14"
   viewBox="0 0 14 14"
   id="svg2">
  <defs
     id="defs3053" />
  <metadata
     id="metadata8">
    <rdf:RDF>
      <cc:Work
         rdf:about="">
        <dc:format>image/svg+xml</dc:format>
        <dc:type
           rdf:resource="http://purl.org/dc/dcmitype/StillImage" />
        <dc:title></dc:title>
      </cc:Work>
    </rdf:RDF>
  </metadata>
  <rect
     width="14"
     height="14"
     x="0"
     y="0"
     id="canvas"
     style="fill:none;stroke:none;visibility:hidden" />
  <path
     d="m 9,3 0,-2 3,0 0,2 z M 2,3 2,1 5,1 5,3 z M 0,3 0,13 14,13 14,3 z M 3.4455611,5 5,5 l 0,2 2,0 0,1.5778894 -2,0 L 5,10.60134 3.4370847,10.634261 3.4615242,8.5300029 1.3911725,8.5459664 1.4221106,7 3.4295976,7 z M 9,7 13,7 13,8.6108059 9,8.5948424 z"
     id="path2991"
     style="fill:#000000;fill-opacity:1;fill-rule:evenodd;stroke:none" />
</svg>

<svg width="14" height="14" version="1.1" viewBox="0 0 14 14" xmlns="http://www.w3.org/2000/svg"><rect id="a" width="14" height="14" fill="none" visibility="hidden"/><path d="m9 3v-2h3v2h-3zm-7 0v-2h3v2h-3zm-2 0v10h14v-10h-14zm3.4456 2h1.5544v2h2v1.5779h-2v2.0235c-0.52097 0.01097-1.0419 0.02195-1.5629 0.03292 0.00815-0.70142 0.016293-1.4028 0.024439-2.1043-0.69012 0.0053222-1.3802 0.010643-2.0704 0.015964 0.010313-0.51532 0.020625-1.0306 0.030938-1.546h2.0075c0.0053212-0.66667 0.010642-1.3333 0.015964-2zm5.5544 2h4v1.6108c-1.3333-0.0053212-2.6667-0.010642-4-0.015964v-1.5948z" fill-rule="evenodd"/></svg>
